src/assets/icons/arrows,fancy,left.svg

<svg width="48" height="48" viewBox="0 0 48 48" fill="none" xmlns="http://www.w3.org/2000/svg">
<path opacity="0.8" d="M41.9785 19C43.0831 19 43.9785 19.8954 43.9785 21L43.9785 27C43.9785 28.1046 43.0831 29 41.9785 29L17.9785 29C16.8739 29 15.9785 28.1046 15.9785 27L15.9785 21C15.9785 19.8954 16.8739 19 17.9785 19L41.9785 19Z" fill="black"/>
<path d="M20.5643 7.41421L5.39273 22.5858C4.61168 23.3668 4.61168 24.6332 5.39273 25.4142L20.5643 40.5858C21.3453 41.3668 22.6117 41.3668 23.3927 40.5858L27.5643 36.4142C28.3453 35.6332 28.3453 34.3668 27.5643 33.5858L19.3927 25.4142C18.6117 24.6332 18.6117 23.3668 19.3927 22.5858L27.5643 14.4142C28.3454 13.6332 28.3454 12.3668 27.5643 11.5858L23.3927 7.41421C22.6117 6.63316 21.3454 6.63316 20.5643 7.41421Z" fill="black"/>
</svg>

<svg xmlns="http://www.w3.org/2000/svg" width="48" height="48" fill="none" viewBox="0 0 48 48">
  <path fill="#000" d="M41.978 19a2 2 0 012 2v6a2 2 0 01-2 2h-24a2 2 0 01-2-2v-6a2 2 0 012-2h24z" opacity=".8"/>
  <path fill="#000" d="M20.564 7.414L5.393 22.586a2 2 0 000 2.828l15.171 15.172a2 2 0 002.829 0l4.171-4.172a2 2 0 000-2.828l-8.171-8.172a2 2 0 010-2.828l8.171-8.172a2 2 0 000-2.828l-4.171-4.172a2 2 0 00-2.829 0z"/>
</svg>
